teeny/solid/certificate.svg

<svg width="15" height="15" viewBox="0 0 15 15" fill="none" xmlns="http://www.w3.org/2000/svg">
<path fill-rule="evenodd" clip-rule="evenodd" d="M0 1.5C0 0.671573 0.671574 0 1.5 0H13.5C14.3284 0 15 0.671529 15 1.49992L15.0007 5.50118L14.2001 4.89975C13.448 4.33466 12.5138 4 11.5 4C9.01472 4 7 6.01472 7 8.5C7 9.51382 7.33466 10.448 7.89975 11.2001L8 11.3336V15H1.5C0.671573 15 0 14.3284 0 13.5V1.5ZM8 5H3V4H8V5ZM3 8H6V7H3V8Z" fill="black"/>
<path fill-rule="evenodd" clip-rule="evenodd" d="M11.5 5C9.567 5 8 6.567 8 8.5C8 9.45365 8.38141 10.3182 9 10.9495V14.5C9 14.6894 9.107 14.8625 9.27639 14.9472C9.44579 15.0319 9.64849 15.0136 9.8 14.9L11.5 13.625L13.2 14.9C13.3515 15.0136 13.5542 15.0319 13.7236 14.9472C13.893 14.8625 14 14.6894 14 14.5V10.9495C14.6186 10.3182 15 9.45365 15 8.5C15 6.567 13.433 5 11.5 5ZM10 13.5V11.6632C10.4546 11.8792 10.9632 12 11.5 12C12.0368 12 12.5454 11.8792 13 11.6632V13.5L11.8 12.6C11.6222 12.4667 11.3778 12.4667 11.2 12.6L10 13.5Z" fill="black"/>
</svg>

<svg viewBox="0 0 15 15" xmlns="http://www.w3.org/2000/svg"><g fill-rule="evenodd"><path d="M0 1.5C0 .67.67 0 1.5 0h12c.82 0 1.5.67 1.5 1.49l0 4 -.81-.61c-.76-.57-1.69-.9-2.71-.9 -2.49 0-4.5 2.01-4.5 4.5 0 1.01.33 1.94.89 2.7l.1.13v3.66h-6.5c-.83 0-1.5-.68-1.5-1.5v-12ZM8 5H3V4h5v1ZM3 8h3V7H3v1Z"/><path d="M11.5 5C9.56 5 8 6.56 8 8.5c0 .95.38 1.81 1 2.44v3.55c0 .18.1.36.27.44 .16.08.37.06.52-.05l1.7-1.28 1.7 1.27c.15.11.35.13.52.04 .16-.09.27-.26.27-.45V10.9c.61-.64 1-1.5 1-2.45 0-1.94-1.57-3.5-3.5-3.5ZM10 13.5v-1.84c.45.21.96.33 1.5.33 .53 0 1.04-.13 1.5-.34v1.83l-1.2-.9c-.18-.14-.43-.14-.6 0l-1.2.9Z"/></g></svg>
